X:118
M:C
L:1/8
K:D
a|f<B f>e f>B B<a|f<B f>e a>c c<a|f<B f>d e>cd>B|A>F E<A C>A,A,a|
f<B f>e f>B B<a|f<B f>e a>a a<a|f<B f>d e>cd>B|A>F E<A C>A,A,:|

